X: 1414
T: O'Rielly's Fancy
M:C|
L:1/8
N:"collected by O'Reily"
B:O'Neill's 1414
Z:"Transcribed by Bob Safranek, rjs@gsp.org"
K:Em
E2 (EF) GFGE | ^DEFG AFDF    | TE^DEF GFGA | ((3Bcd) Ac (BE) E2 :|
BcAc    BeeB | cBAc  (BE) E2 |  BcAc  Beef | geg^d      e2   e2 |
BcAc    BeeB | cBAc  (BE) E2 |  BcAc  Beef | ((3gab) af e2   e2 |]


